X: 051
T: The New German Waltze
%O: 1795
R: waltz
N: This is version 2, for ABC software that understands voice overlays.
Z: 2018 John Chambers <jc:trillian.mit.edu>
B: Wm. Campbell "10th Book of New and Favorite Country Dances, Strathey Reels" 1795 p.5
F: https://archive.org/details/campbellstenthbo00camp
M: 3/8
L: 1/16
K: F
% - - - - - - - - - - - - - - - - - - - - - - - - -
% Voice 1 arranged for small-scale proofreading
V: 1 staves=2
cB |\
A2A2G2 | F3(fed) | c2c2=B2 | c4c_B |\
A2A2G2 | TF4f2 | ({g}f2e2d2) | c4 :: c2 |\
(g2c2).c2 | (a2c2).c2 |
(c2b2)a2 | (a2g2)e2 |\
(f2e2)d2 | (c2e2f2) | ({a}g2f2e2) | Tf4 :: AB |\
c2A2c2 | f2e2d2 | d2c2c2 | c4Ac |\
c2B2B2 |
B4GB | B2A2A2 | A4AB |\
c2A2c2 | f2e2d2 | d2c2c2 | c4Ac |\
c2B2B2 | B4GE | F2[f2A2][f2A2] | [f4A4] |]
% - - - - - - - - - - - - - - - - - - - - - - - - -
% Voice 1 preserves the original staff layout
V: 2 clef=bass middle=d
z2 |\
f2c'2c2 | d4z2 | c2g2G2 | c4z2 | f2c'2c2 | BdBd=Bd | c2g2G2 | c4 :: z2 | cdedec | fgagaf |
efgfef | c2gec2 | d2c2B2 | A2G2F2 | B2c2c2 | f2F2 :: z2 |\
a2f2a2 & f6 | d'2c'2b2 & f6 | b2a2a2 & f6 | a4x2 & f2F2z2 | a2g2g2 & c6 | g4g2 & c6 | g2f2f2 & c6 |
f4x2 & F2f2z2 | a2f2a2 & f6 | d'2c'2b2 & f6 | b2a2a2 & f6 | a4x2 & f2F2z2 | a2g2g2 & c6 | g4g2 & c4c2 | FAcfcA | F2f2 |]
% - - - - - - - - - - - - - - - - - - - - - - - - -
%%begintext align
%% Set & hands cross & back again Lead down the middle up
%% again to the top turn your partner with the Right hand quite
%% round the same with the Left :|: hands 4 round at bottom
%% Right & Left.
%%endtext
% - - - - - - - - - - - - - - - - - - - - - - - - -

%%sep 1 1 500
%%sep 1 1 500

